X:1
T:Emerald, 87.87.87
T:Emerald, 87.87.87
T:English Melody
T:Public Domain Courtesy of the Cyber Hymnal™
C:English Melody
Z:Public Domain
Z:Courtesy of the Cyber Hymnal™
%%score ( 1 2 ) ( 3 4 )
L:1/8
Q:1/4=105
M:none
K:F
V:1 treble 
V:2 treble 
V:3 bass 
V:4 bass 
V:1
 [FA]3 [EG] F2 F2 | [Ac]3 [GB] [GB]2 [FA]2 | [Af]3 [Fc] (ed) (cB) | AG (cE) [CF]4 | %4
 [EG]3 [DF] [CE]2 [CE]2 | [GB]3 [FA] [FA]2 [EG]2 | [EG]3 [EG] [FA]2 [FA]2 | [F=B]2 [FB]2 [Ec]4 | %8
 [FA]3 [EG] F2 F2 | [Ac]3 [GB] [GB]2 [FA]2 | [Af]3 [Fc] (ed) (cB) | (AG) (cE) [CF]4 |] %12
V:2
 x4 F2 F2 | x8 | x4 F2 D2 | E2 C2 x4 | x8 | x8 | x8 | x8 | x4 F2 F2 | x8 | x4 F2 D2 | E2 C2 x4 |] %12
V:3
 [F,C]3 [F,B,] [F,A,]2 [F,A,]2 | [F,C]3 [F,C] [E,C]2 [F,C]2 | [F,C]3 [F,A,] (CB,) (A,G,) | %3
 [C,B,]2 [C,B,]2 [F,A,]4 | [G,,G,]3 [=B,,G,] [C,G,]2 [C,G,]2 | [E,C]3 [F,C] [C,C]2 [C,C]2 | %6
 C3 C [F,C]2 [F,C]2 | [D,D]2 [F,D]2 [C,C]4 | [F,C]3 [F,B,] [F,A,]2 [F,A,]2 | %9
 [F,C]3 [F,C] [E,C]2 [F,C]2 | [F,C]3 [F,A,] (CB,) (A,G,) | [C,B,]2 [C,B,]2 [F,A,]4 |] %12
V:4
 x8 | x8 | x4 B,,2 B,,2 | x8 | x8 | x8 | C3 C x4 | x8 | x8 | x8 | x4 B,,2 B,,2 | x8 |] %12

